src/public/icons/x.svg

<svg viewBox="0 0 30 30" fill="none"
  xmlns="http://www.w3.org/2000/svg">
  <path d="M23.3467 10.2451C23.3604 10.3545 23.3672 10.5322 23.3672 10.7783C23.3672 12.7471 22.875 14.6816 21.8906 16.582C20.9199 18.4688 19.5049 20.0205 17.6455 21.2373C15.7861 22.4404 13.5986 23.042 11.083 23.042C9.90723 23.042 8.75879 22.8779 7.6377 22.5498C6.53027 22.2217 5.48438 21.7432 4.5 21.1143C4.82812 21.1553 5.16309 21.1758 5.50488 21.1758C6.48926 21.1758 7.43945 21.0186 8.35547 20.7041C9.27148 20.3896 10.1055 19.9248 10.8574 19.3096C9.95508 19.3096 9.13477 19.0361 8.39648 18.4893C7.6582 17.9287 7.13184 17.2109 6.81738 16.3359C7.17285 16.3906 7.44629 16.418 7.6377 16.418C8.03418 16.418 8.41699 16.3564 8.78613 16.2334C8.12988 16.1104 7.53516 15.8506 7.00195 15.4541C6.48242 15.0439 6.07227 14.5449 5.77148 13.957C5.48438 13.3555 5.34082 12.7197 5.34082 12.0498V11.9883C5.94238 12.3438 6.5918 12.5215 7.28906 12.5215C6.67383 12.125 6.19531 11.6055 5.85352 10.9629C5.52539 10.3203 5.36133 9.64355 5.36133 8.93262C5.36133 8.18066 5.55957 7.46289 5.95605 6.7793C7.0498 8.11914 8.36914 9.17871 9.91406 9.95801C11.459 10.7373 13.1064 11.1748 14.8564 11.2705C14.7744 10.9424 14.7334 10.6074 14.7334 10.2656C14.7334 9.69141 14.8496 9.1377 15.082 8.60449C15.3281 8.05762 15.6631 7.5791 16.0869 7.16895C16.4834 6.78613 16.9346 6.49902 17.4404 6.30762C17.96 6.10254 18.4932 6 19.04 6C19.6143 6 20.1748 6.11621 20.7217 6.34863C21.2686 6.58105 21.7539 6.91602 22.1777 7.35352C23.2168 7.14844 24.126 6.79297 24.9053 6.28711C24.7549 6.79297 24.5156 7.25098 24.1875 7.66113C23.8594 8.07129 23.4766 8.40625 23.0391 8.66602C23.9277 8.58398 24.748 8.3584 25.5 7.98926C24.9121 8.87793 24.1943 9.62988 23.3467 10.2451Z" fill="#706b6d"/>
</svg>

<svg xmlns="http://www.w3.org/2000/svg" fill="none" viewBox="0 0 30 30"><path fill="#706b6d" d="M23.347 10.245q.02.165.02.533 0 2.955-1.476 5.804-1.456 2.83-4.245 4.655-2.79 1.805-6.563 1.805-1.764 0-3.445-.492A12.3 12.3 0 0 1 4.5 21.114q.492.062 1.005.062 1.476 0 2.85-.472a8 8 0 0 0 2.502-1.394 4.04 4.04 0 0 1-2.46-.82 4.6 4.6 0 0 1-1.58-2.154q.534.082.82.082.595 0 1.15-.185a4.3 4.3 0 0 1-1.785-.779q-.78-.616-1.23-1.497a4.4 4.4 0 0 1-.431-1.907v-.062a3.76 3.76 0 0 0 1.948.534 4.14 4.14 0 0 1-1.435-1.56 4.4 4.4 0 0 1-.493-2.03q0-1.127.595-2.153a12.1 12.1 0 0 0 3.958 3.179 12.35 12.35 0 0 0 4.942 1.313 4.13 4.13 0 0 1 .226-2.667 4.6 4.6 0 0 1 1.005-1.435q.595-.574 1.353-.861a4.26 4.26 0 0 1 3.281.041 4.4 4.4 0 0 1 1.457 1.005q1.559-.309 2.727-1.067-.226.759-.718 1.374-.491.615-1.148 1.005a7 7 0 0 0 2.461-.677 8.7 8.7 0 0 1-2.153 2.256"/></svg>
